X:2463
T:Långdans från Sollerön
Z:[[http://www.bluerose.karenlmyers.org/IncipitsLangdans1.html|Karen Myers (#2463)]]
Z:Upptecknad 11/2005
M:3/4
L:1/8
R:Långdans
O:Sollerön
K:Dm
A2 ^c2 d2 | e3 g f2 | d2 (fe) d^c | d3 ^c A2- | A2 ^c2 d2 |
e3 g f2 | d2 (fe) d^c | d6 :: .a2 .g2 .e2 | g3 e f2 |
.f2 .a2 .g2 | e2 ge f2 | d2 fe d^c | d6 :|
